X:1
T:Title
%%score ( 1 2 3 ) ( 4 5 )
L:1/8
M:3/4
K:Ab
V:1 treble nm="Grand Piano, Right Hand"
V:2 treble 
V:3 treble 
V:4 bass nm="Choir Pad, Seasons, LM"
V:5 bass 
V:1
 [CE]2 [Ec]4 | [DB]2 [CA]4 | [EA]2 [FB]2 [Ec]2 | [Ed]2 [Ec]4 | [EB]2 [Ec]4 | [DB]2 [CA]4 | %6
w: By~Ignaz~Josef~Pleyel~(1757\-1831) *||||||
 [EB][FA] [EG]3 [FA] | [=DF]2 E4 | .c2 e4 | [Af]2 [Ae]2 [Gd]2 | z2 c4 | .d2 A2 z2 | E2 [Ec]4 | %13
w: |||||||
 [GB]2 A2 [FB]2 | z2 d2 z2 | G2 z2 z2 | z6 |] %17
w: ||||
V:2
 x6 | x6 | x6 | x6 | x6 | x6 | x6 | x6 | E-[Ed] E2 A2 | x6 | [EB]2 E2 z e | F-[FB] E2- [EG]2 | x6 | %13
 x6 | [Ec]2 D2- [DF]2 | ED [CA]4- | [CA]4 z2 |] %17
V:3
 x6 | x6 | x6 | x6 | x6 | x6 | x6 | x6 | x6 | x6 | z2 z2 _G2 | x6 | x6 | x6 | x6 | x6 | x6 |] %17
V:4
 [A,,A,]2 [A,,A,]4 | [E,G,]2 [F,A,]4 | z2 A,4 | [E,G,]2 A,4 | [E,G,]2 A,4 | [E,G,]2 [F,A,]4 | %6
 [G,B,][A,C] B,4 | [B,,A,]2 [E,G,]4 | A,B, [A,C]4 | [D,D]2 C2 B,2 | [E,G,]2 A,2 C,2 | B,D C2 B,2 | %12
 [E,G,]2 A,2 E2 | [E,D]2 [F,C]2 [D,B,]2 | [C,=A,]2 [B,,B,]4 | [E,B,]2 [A,,A,]4- | [A,,A,]4 z2 |] %17
V:5
 x6 | x6 | [C,A,]2 D,2 E,2 | x6 | x6 | x6 | x6 | x6 | x6 | z2 E,4 | x6 | D,2 E,4 | z2 A,,4 | x6 | %14
 x6 | x6 | x6 |] %17

